third_party/noto/noto_2/emoji_u1fa79.svg

<svg enable-background="new 0 0 128 128" version="1.1" viewBox="0 0 128 128" xmlns="http://www.w3.org/2000/svg"><path d="m115.58 12.85-0.52-0.52c-9.36-9.35-24.52-9.34-33.87 0.01l-67.45 67.44-0.01 0.01c-10.13 10.13-10.12 26.56 0.01 36.68l0.51 0.51c9.35 9.35 24.52 9.35 33.87 0l67.45-67.45c10.14-10.12 10.14-26.55 0.01-36.68zm-94.21 89.89c-1.03 1.03-2.7 1.03-3.72 0-1.03-1.03-1.03-2.7 0-3.72 1.03-1.03 2.7-1.03 3.72 0 1.02 1.02 1.02 2.69 0 3.72zm1.63-10.76c-1.03 1.03-2.7 1.03-3.72 0-1.03-1.03-1.03-2.7 0-3.72 1.03-1.03 2.7-1.03 3.72 0 1.03 1.03 1.03 2.69 0 3.72zm7.29 19.7c-1.03 1.03-2.7 1.03-3.72 0-1.03-1.03-1.03-2.7 0-3.72 1.03-1.03 2.7-1.03 3.72 0 1.03 1.02 1.03 2.69 0 3.72zm2.05-10.36c-1.03 1.03-2.7 1.03-3.72 0-1.03-1.03-1.03-2.7 0-3.72 1.03-1.03 2.7-1.03 3.72 0 1.03 1.02 1.03 2.69 0 3.72zm1.42-10.98c-1.03 1.03-2.7 1.03-3.72 0-1.03-1.03-1.03-2.7 0-3.72 1.03-1.03 2.7-1.03 3.72 0 1.03 1.02 1.03 2.69 0 3.72zm1.64-10.76c-1.03 1.03-2.7 1.03-3.72 0-1.03-1.03-1.03-2.7 0-3.72 1.03-1.03 2.7-1.03 3.72 0 1.03 1.03 1.03 2.7 0 3.72zm5.65 30.45c-1.03 1.03-2.7 1.03-3.72 0-1.03-1.03-1.03-2.7 0-3.72 1.03-1.03 2.7-1.03 3.72 0 1.03 1.03 1.03 2.7 0 3.72zm1.64-10.75c-1.03 1.03-2.7 1.03-3.72 0-1.03-1.03-1.03-2.7 0-3.72 1.03-1.03 2.7-1.03 3.72 0 1.03 1.02 1.03 2.69 0 3.72zm2.04-10.37c-1.03 1.03-2.7 1.03-3.72 0-1.03-1.03-1.03-2.7 0-3.72 1.03-1.03 2.7-1.03 3.72 0 1.03 1.03 1.03 2.69 0 3.72zm8.73 8.73c-1.03 1.03-2.7 1.03-3.72 0-1.03-1.03-1.03-2.7 0-3.72 1.03-1.03 2.7-1.03 3.72 0 1.03 1.02 1.03 2.69 0 3.72zm26.12-62.24c-1.03 1.03-2.7 1.03-3.72 0-1.03-1.03-1.03-2.7 0-3.72 1.03-1.03 2.7-1.03 3.72 0 1.03 1.03 1.03 2.69 0 3.72zm8.73 8.73c-1.03 1.03-2.7 1.03-3.72 0-1.03-1.03-1.03-2.7 0-3.72 1.03-1.03 2.7-1.03 3.72 0 1.03 1.02 1.03 2.69 0 3.72zm2.03-10.37c-1.03 1.03-2.7 1.03-3.72 0-1.03-1.03-1.03-2.7 0-3.72 1.03-1.03 2.7-1.03 3.72 0 1.03 1.02 1.03 2.69 0 3.72zm1.64-10.76c-1.03 1.03-2.7 1.03-3.72 0-1.03-1.03-1.03-2.7 0-3.72 1.03-1.03 2.7-1.03 3.72 0 1.03 1.03 1.03 2.7 0 3.72zm5.66 30.45c-1.03 1.03-2.7 1.03-3.72 0-1.03-1.03-1.03-2.7 0-3.72 1.03-1.03 2.7-1.03 3.72 0 1.03 1.03 1.03 2.7 0 3.72zm1.64-10.75c-1.03 1.03-2.7 1.03-3.72 0-1.03-1.03-1.03-2.7 0-3.72 1.03-1.03 2.7-1.03 3.72 0 1.03 1.03 1.03 2.69 0 3.72zm1.42-10.98c-1.03 1.03-2.7 1.03-3.72 0-1.03-1.03-1.03-2.7 0-3.72 1.03-1.03 2.7-1.03 3.72 0 1.03 1.03 1.03 2.69 0 3.72zm2.04-10.36c-1.03 1.03-2.7 1.03-3.72 0-1.03-1.03-1.03-2.7 0-3.72 1.03-1.03 2.7-1.03 3.72 0 1.03 1.03 1.03 2.69 0 3.72zm7.3 19.7c-1.03 1.03-2.7 1.03-3.72 0-1.03-1.03-1.03-2.7 0-3.72 1.03-1.03 2.7-1.03 3.72 0 1.03 1.02 1.03 2.69 0 3.72zm1.64-10.76c-1.03 1.03-2.7 1.03-3.72 0-1.03-1.03-1.03-2.7 0-3.72 1.03-1.03 2.7-1.03 3.72 0 1.03 1.03 1.03 2.69 0 3.72z" fill="#99674F"/><path d="m114.26 11.54-0.52-0.52c-9.36-9.35-24.52-9.34-33.87 0.01l-67.45 67.43-0.01 0.01c-10.12 10.13-10.12 26.56 0.02 36.68l0.51 0.51c9.35 9.35 24.52 9.35 33.87 0l67.45-67.45c10.13-10.12 10.13-26.54 0-36.67zm-94.21 89.88c-1.03 1.03-2.7 1.03-3.72 0-1.03-1.03-1.03-2.7 0-3.72 1.03-1.03 2.7-1.03 3.72 0 1.03 1.02 1.03 2.69 0 3.72zm1.64-10.76c-1.03 1.03-2.7 1.03-3.72 0-1.03-1.03-1.03-2.7 0-3.72 1.03-1.03 2.7-1.03 3.72 0s1.02 2.7 0 3.72zm7.28 19.7c-1.03 1.03-2.7 1.03-3.72 0-1.03-1.03-1.03-2.7 0-3.72 1.03-1.03 2.7-1.03 3.72 0 1.03 1.03 1.03 2.69 0 3.72zm2.05-10.36c-1.03 1.03-2.7 1.03-3.72 0-1.03-1.03-1.03-2.7 0-3.72 1.03-1.03 2.7-1.03 3.72 0 1.03 1.03 1.03 2.69 0 3.72zm1.43-10.98c-1.03 1.03-2.7 1.03-3.72 0-1.03-1.03-1.03-2.7 0-3.72 1.03-1.03 2.7-1.03 3.72 0 1.03 1.03 1.03 2.69 0 3.72zm1.64-10.75c-1.03 1.03-2.7 1.03-3.72 0-1.03-1.03-1.03-2.7 0-3.72 1.03-1.03 2.7-1.03 3.72 0 1.02 1.02 1.02 2.69 0 3.72zm5.64 30.45c-1.03 1.03-2.7 1.03-3.72 0-1.03-1.03-1.03-2.7 0-3.72 1.03-1.03 2.7-1.03 3.72 0 1.03 1.02 1.03 2.69 0 3.72zm1.64-10.76c-1.03 1.03-2.7 1.03-3.72 0-1.03-1.03-1.03-2.7 0-3.72 1.03-1.03 2.7-1.03 3.72 0 1.03 1.03 1.03 2.69 0 3.72zm2.04-10.36c-1.03 1.03-2.7 1.03-3.72 0-1.03-1.03-1.03-2.7 0-3.72 1.03-1.03 2.7-1.03 3.72 0 1.03 1.02 1.03 2.69 0 3.72zm8.73 8.72c-1.03 1.03-2.7 1.03-3.72 0-1.03-1.03-1.03-2.7 0-3.72 1.03-1.03 2.7-1.03 3.72 0 1.03 1.02 1.03 2.69 0 3.72zm26.13-62.23c-1.03 1.03-2.7 1.03-3.72 0-1.03-1.03-1.03-2.7 0-3.72 1.03-1.03 2.7-1.03 3.72 0 1.02 1.02 1.02 2.69 0 3.72zm8.73 8.72c-1.03 1.03-2.7 1.03-3.72 0-1.03-1.03-1.03-2.7 0-3.72 1.03-1.03 2.7-1.03 3.72 0 1.02 1.02 1.02 2.69 0 3.72zm2.03-10.37c-1.03 1.03-2.7 1.03-3.72 0-1.03-1.03-1.03-2.7 0-3.72 1.03-1.03 2.7-1.03 3.72 0s1.02 2.69 0 3.72zm1.63-10.75c-1.03 1.03-2.7 1.03-3.72 0-1.03-1.03-1.03-2.7 0-3.72 1.03-1.03 2.7-1.03 3.72 0 1.03 1.02 1.03 2.69 0 3.72zm5.66 30.45c-1.03 1.03-2.7 1.03-3.72 0-1.03-1.03-1.03-2.7 0-3.72 1.03-1.03 2.7-1.03 3.72 0 1.03 1.02 1.03 2.69 0 3.72zm1.64-10.76c-1.03 1.03-2.7 1.03-3.72 0-1.03-1.03-1.03-2.7 0-3.72 1.03-1.03 2.7-1.03 3.72 0 1.03 1.03 1.03 2.7 0 3.72zm1.43-10.98c-1.03 1.03-2.7 1.03-3.72 0-1.03-1.03-1.03-2.7 0-3.72 1.03-1.03 2.7-1.03 3.72 0s1.02 2.7 0 3.72zm2.03-10.36c-1.03 1.03-2.7 1.03-3.72 0-1.03-1.03-1.03-2.7 0-3.72 1.03-1.03 2.7-1.03 3.72 0 1.03 1.03 1.03 2.7 0 3.72zm7.3 19.7c-1.03 1.03-2.7 1.03-3.72 0-1.03-1.03-1.03-2.7 0-3.72 1.03-1.03 2.7-1.03 3.72 0 1.03 1.02 1.03 2.69 0 3.72zm1.64-10.75c-1.03 1.03-2.7 1.03-3.72 0-1.03-1.03-1.03-2.7 0-3.72 1.03-1.03 2.7-1.03 3.72 0 1.03 1.02 1.03 2.69 0 3.72z" fill="#DB9F70"/><path d="m87.15 66.04c2.11-2.32 1.73-2.95-2.18-2.7-3.23 0.2-5.3 2.27-6.58 3.55l-14.07 14.06c-1.25 1.25-3.27 1.25-4.52 0l-11.55-11.55c-1.28-1.28-2.75-2.96-4.45-3.46-1.39-0.41-2.61-1.02-5.19-0.42-2.22 0.51 1.71 3.84 2.65 4.78l17.7 17.7c1.68 1.68 4.4 1.68 6.08 0 0.01-0.01 21.44-21.22 22.11-21.96z" fill="#99674F"/><path d="m87.95 58.87c-0.03-0.09-19.68-19.63-20.23-20.18-1.68-1.68-4.4-1.68-6.08 0-1.95 1.95-20.55 20.38-20.55 20.38s-2.52 2.51 0.12 2.95c2.65 0.44 4.38 0.07 6.31-1.8 4.96-4.8 14.84-14.5 14.84-14.5 1.25-1.25 3.27-1.25 4.52 0 2.27 2.27 10.09 10 11.72 11.58 2.04 1.98 4.2 3.16 7.11 3.28 3.76 0.16 2.45-1.14 2.24-1.71z" fill="#FCBF90"/></svg>

<?xml version="1.0" encoding="utf-8"?>
<!-- Generator: Adobe Illustrator 25.2.3, SVG Export Plug-In . SVG Version: 6.00 Build 0)  -->
<svg version="1.1" id="Layer_4" xmlns="http://www.w3.org/2000/svg" xmlns:xlink="http://www.w3.org/1999/xlink" x="0px" y="0px"
	 viewBox="0 0 128 128" style="enable-background:new 0 0 128 128;" xml:space="preserve">
<g>
	<g>
		<g>
			<path style="fill:#99674F;" d="M115.58,12.85l-0.51-0.51c0,0-0.01-0.01-0.01-0.01c-9.36-9.35-24.52-9.34-33.87,0.01L13.74,79.78
				c0,0,0,0-0.01,0.01C3.6,89.92,3.61,106.35,13.74,116.47l0.51,0.51c9.35,9.35,24.52,9.35,33.87,0l67.44-67.44c0,0,0,0,0.01-0.01
				C125.71,39.41,125.71,22.98,115.58,12.85z M21.37,102.74c-1.03,1.03-2.7,1.03-3.72,0c-1.03-1.03-1.03-2.7,0-3.72
				c1.03-1.03,2.7-1.03,3.72,0C22.39,100.04,22.39,101.71,21.37,102.74z M23,91.98c-1.03,1.03-2.7,1.03-3.72,0
				c-1.03-1.03-1.03-2.7,0-3.72c1.03-1.03,2.7-1.03,3.72,0C24.03,89.29,24.03,90.95,23,91.98z M30.29,111.68
				c-1.03,1.03-2.7,1.03-3.72,0c-1.03-1.03-1.03-2.7,0-3.72c1.03-1.03,2.7-1.03,3.72,0C31.32,108.98,31.32,110.65,30.29,111.68z
				 M32.34,101.32c-1.03,1.03-2.7,1.03-3.72,0c-1.03-1.03-1.03-2.7,0-3.72c1.03-1.03,2.7-1.03,3.72,0
				C33.37,98.62,33.37,100.29,32.34,101.32z M33.76,90.34c-1.03,1.03-2.7,1.03-3.72,0c-1.03-1.03-1.03-2.7,0-3.72
				c1.03-1.03,2.7-1.03,3.72,0C34.79,87.64,34.79,89.31,33.76,90.34z M35.4,79.58c-1.03,1.03-2.7,1.03-3.72,0
				c-1.03-1.03-1.03-2.7,0-3.72c1.03-1.03,2.7-1.03,3.72,0C36.43,76.89,36.43,78.56,35.4,79.58z M41.05,110.03
				c-1.03,1.03-2.7,1.03-3.72,0c-1.03-1.03-1.03-2.7,0-3.72c1.03-1.03,2.7-1.03,3.72,0C42.08,107.34,42.08,109.01,41.05,110.03z
				 M42.69,99.28c-1.03,1.03-2.7,1.03-3.72,0c-1.03-1.03-1.03-2.7,0-3.72c1.03-1.03,2.7-1.03,3.72,0
				C43.72,96.58,43.72,98.25,42.69,99.28z M44.73,88.91c-1.03,1.03-2.7,1.03-3.72,0c-1.03-1.03-1.03-2.7,0-3.72
				c1.03-1.03,2.7-1.03,3.72,0C45.76,86.22,45.76,87.88,44.73,88.91z M53.46,97.64c-1.03,1.03-2.7,1.03-3.72,0
				c-1.03-1.03-1.03-2.7,0-3.72c1.03-1.03,2.7-1.03,3.72,0C54.49,94.94,54.49,96.61,53.46,97.64z M79.58,35.4
				c-1.03,1.03-2.7,1.03-3.72,0c-1.03-1.03-1.03-2.7,0-3.72c1.03-1.03,2.7-1.03,3.72,0C80.61,32.71,80.61,34.37,79.58,35.4z
				 M88.31,44.13c-1.03,1.03-2.7,1.03-3.72,0c-1.03-1.03-1.03-2.7,0-3.72c1.03-1.03,2.7-1.03,3.72,0
				C89.34,41.43,89.34,43.1,88.31,44.13z M90.34,33.76c-1.03,1.03-2.7,1.03-3.72,0c-1.03-1.03-1.03-2.7,0-3.72
				c1.03-1.03,2.7-1.03,3.72,0C91.37,31.06,91.37,32.73,90.34,33.76z M91.98,23c-1.03,1.03-2.7,1.03-3.72,0
				c-1.03-1.03-1.03-2.7,0-3.72c1.03-1.03,2.7-1.03,3.72,0C93.01,20.31,93.01,21.98,91.98,23z M97.64,53.45
				c-1.03,1.03-2.7,1.03-3.72,0c-1.03-1.03-1.03-2.7,0-3.72c1.03-1.03,2.7-1.03,3.72,0C98.67,50.76,98.67,52.43,97.64,53.45z
				 M99.28,42.7c-1.03,1.03-2.7,1.03-3.72,0c-1.03-1.03-1.03-2.7,0-3.72c1.03-1.03,2.7-1.03,3.72,0
				C100.31,40.01,100.31,41.67,99.28,42.7z M100.7,31.72c-1.03,1.03-2.7,1.03-3.72,0c-1.03-1.03-1.03-2.7,0-3.72
				c1.03-1.03,2.7-1.03,3.72,0C101.73,29.03,101.73,30.69,100.7,31.72z M102.74,21.36c-1.03,1.03-2.7,1.03-3.72,0
				c-1.03-1.03-1.03-2.7,0-3.72c1.03-1.03,2.7-1.03,3.72,0C103.77,18.67,103.77,20.33,102.74,21.36z M110.04,41.06
				c-1.03,1.03-2.7,1.03-3.72,0c-1.03-1.03-1.03-2.7,0-3.72c1.03-1.03,2.7-1.03,3.72,0C111.07,38.36,111.07,40.03,110.04,41.06z
				 M111.68,30.3c-1.03,1.03-2.7,1.03-3.72,0c-1.03-1.03-1.03-2.7,0-3.72c1.03-1.03,2.7-1.03,3.72,0
				C112.71,27.61,112.71,29.27,111.68,30.3z"/>
		</g>
	</g>
	<path style="fill:#DB9F70;" d="M114.26,11.54l-0.51-0.51c0,0-0.01-0.01-0.01-0.01c-9.36-9.35-24.52-9.34-33.87,0.01L12.42,78.46
		c0,0,0,0-0.01,0.01C2.29,88.6,2.29,105.03,12.43,115.15l0.51,0.51c9.35,9.35,24.52,9.35,33.87,0l67.44-67.44c0,0,0,0,0.01-0.01
		C124.39,38.09,124.39,21.67,114.26,11.54z M20.05,101.42c-1.03,1.03-2.7,1.03-3.72,0c-1.03-1.03-1.03-2.7,0-3.72
		c1.03-1.03,2.7-1.03,3.72,0C21.08,98.72,21.08,100.39,20.05,101.42z M21.69,90.66c-1.03,1.03-2.7,1.03-3.72,0
		c-1.03-1.03-1.03-2.7,0-3.72c1.03-1.03,2.7-1.03,3.72,0C22.71,87.97,22.71,89.64,21.69,90.66z M28.97,110.36
		c-1.03,1.03-2.7,1.03-3.72,0c-1.03-1.03-1.03-2.7,0-3.72c1.03-1.03,2.7-1.03,3.72,0C30,107.67,30,109.33,28.97,110.36z M31.02,100
		c-1.03,1.03-2.7,1.03-3.72,0c-1.03-1.03-1.03-2.7,0-3.72c1.03-1.03,2.7-1.03,3.72,0C32.05,97.31,32.05,98.97,31.02,100z
		 M32.45,89.02c-1.03,1.03-2.7,1.03-3.72,0c-1.03-1.03-1.03-2.7,0-3.72c1.03-1.03,2.7-1.03,3.72,0
		C33.48,86.33,33.48,87.99,32.45,89.02z M34.09,78.27c-1.03,1.03-2.7,1.03-3.72,0c-1.03-1.03-1.03-2.7,0-3.72
		c1.03-1.03,2.7-1.03,3.72,0C35.11,75.57,35.11,77.24,34.09,78.27z M39.73,108.72c-1.03,1.03-2.7,1.03-3.72,0
		c-1.03-1.03-1.03-2.7,0-3.72c1.03-1.03,2.7-1.03,3.72,0C40.76,106.02,40.76,107.69,39.73,108.72z M41.37,97.96
		c-1.03,1.03-2.7,1.03-3.72,0c-1.03-1.03-1.03-2.7,0-3.72c1.03-1.03,2.7-1.03,3.72,0C42.4,95.27,42.4,96.93,41.37,97.96z
		 M43.41,87.6c-1.03,1.03-2.7,1.03-3.72,0c-1.03-1.03-1.03-2.7,0-3.72c1.03-1.03,2.7-1.03,3.72,0C44.44,84.9,44.44,86.57,43.41,87.6
		z M52.14,96.32c-1.03,1.03-2.7,1.03-3.72,0c-1.03-1.03-1.03-2.7,0-3.72c1.03-1.03,2.7-1.03,3.72,0
		C53.17,93.62,53.17,95.29,52.14,96.32z M78.27,34.09c-1.03,1.03-2.7,1.03-3.72,0c-1.03-1.03-1.03-2.7,0-3.72
		c1.03-1.03,2.7-1.03,3.72,0C79.29,31.39,79.29,33.06,78.27,34.09z M87,42.81c-1.03,1.03-2.7,1.03-3.72,0
		c-1.03-1.03-1.03-2.7,0-3.72c1.03-1.03,2.7-1.03,3.72,0C88.02,40.11,88.02,41.78,87,42.81z M89.03,32.44
		c-1.03,1.03-2.7,1.03-3.72,0c-1.03-1.03-1.03-2.7,0-3.72c1.03-1.03,2.7-1.03,3.72,0C90.05,29.75,90.05,31.41,89.03,32.44z
		 M90.66,21.69c-1.03,1.03-2.7,1.03-3.72,0c-1.03-1.03-1.03-2.7,0-3.72c1.03-1.03,2.7-1.03,3.72,0
		C91.69,18.99,91.69,20.66,90.66,21.69z M96.32,52.14c-1.03,1.03-2.7,1.03-3.72,0c-1.03-1.03-1.03-2.7,0-3.72
		c1.03-1.03,2.7-1.03,3.72,0C97.35,49.44,97.35,51.11,96.32,52.14z M97.96,41.38c-1.03,1.03-2.7,1.03-3.72,0
		c-1.03-1.03-1.03-2.7,0-3.72c1.03-1.03,2.7-1.03,3.72,0C98.99,38.69,98.99,40.36,97.96,41.38z M99.39,30.4
		c-1.03,1.03-2.7,1.03-3.72,0c-1.03-1.03-1.03-2.7,0-3.72c1.03-1.03,2.7-1.03,3.72,0C100.41,27.71,100.41,29.38,99.39,30.4z
		 M101.42,20.04c-1.03,1.03-2.7,1.03-3.72,0c-1.03-1.03-1.03-2.7,0-3.72c1.03-1.03,2.7-1.03,3.72,0
		C102.45,17.35,102.45,19.02,101.42,20.04z M108.72,39.74c-1.03,1.03-2.7,1.03-3.72,0c-1.03-1.03-1.03-2.7,0-3.72
		c1.03-1.03,2.7-1.03,3.72,0C109.75,37.04,109.75,38.71,108.72,39.74z M110.36,28.99c-1.03,1.03-2.7,1.03-3.72,0
		c-1.03-1.03-1.03-2.7,0-3.72c1.03-1.03,2.7-1.03,3.72,0C111.39,26.29,111.39,27.96,110.36,28.99z"/>
	<g>
		<path style="fill:#99674F;" d="M87.15,66.04c2.11-2.32,1.73-2.95-2.18-2.7c-3.23,0.2-5.3,2.27-6.58,3.55L64.32,80.95
			c-1.25,1.25-3.27,1.25-4.52,0c-0.04-0.04-0.08-0.08-0.12-0.12c-2.34-2.34-11.43-11.43-11.43-11.43c-1.28-1.28-2.75-2.96-4.45-3.46
			c-1.39-0.41-2.61-1.02-5.19-0.42c-2.22,0.51,1.71,3.84,2.65,4.78c1.52,1.52,13.32,13.32,17.7,17.7c1.68,1.68,4.4,1.68,6.08,0
			C65.05,87.99,86.48,66.78,87.15,66.04z"/>
	</g>
	<path style="fill:#FCBF90;" d="M87.95,58.87c-0.03-0.09-19.68-19.63-20.23-20.18c-1.68-1.68-4.4-1.68-6.08,0
		c-1.95,1.95-20.55,20.38-20.55,20.38s-2.52,2.51,0.12,2.95c2.65,0.44,4.38,0.07,6.31-1.8c4.96-4.8,14.84-14.5,14.84-14.5
		c1.25-1.25,3.27-1.25,4.52,0c2.27,2.27,10.09,10,11.72,11.58c2.04,1.98,4.2,3.16,7.11,3.28C89.47,60.74,88.16,59.44,87.95,58.87z"
		/>
</g>
</svg>
